packages/foundations/assets/icons/functional/images/environment/snow_flake_16.svg

<svg width="16" height="16" viewBox="0 0 16 16" fill="none" xmlns="http://www.w3.org/2000/svg">
<g clip-path="url(#clip0_185_845)">
<path fill-rule="evenodd" clip-rule="evenodd" d="M8.00341 1.79999C8.30717 1.79999 8.60458 2.04412 8.59793 2.39999L8.60273 3.35119L9.17915 2.77572C9.39216 2.56271 9.76192 2.52876 10.001 2.74614C10.24 2.96353 10.2953 3.32155 10.0277 3.62425L8.60273 5.04799V6.96079L10.4059 5.91999L10.8884 4.12119C10.9742 3.80111 11.3032 3.61116 11.6232 3.69692C11.9142 3.77489 12.1393 4.0557 12.0475 4.43177L11.8755 5.07119L12.5532 4.68037C12.8401 4.51469 13.2071 4.61301 13.3728 4.89999C13.5246 5.16305 13.4617 5.53372 13.1532 5.7196L12.2899 6.21759L13.2232 6.46821C13.5381 6.53835 13.728 6.8822 13.6475 7.20305C13.567 7.5239 13.2815 7.71655 12.9127 7.62732L10.8195 7.06639L9.20353 7.99919L11.1139 9.10239L12.9127 8.62119C13.2327 8.53542 13.5617 8.72537 13.6475 9.04545C13.7255 9.33643 13.5659 9.6884 13.2232 9.7803L12.5835 9.95119L13.1532 10.2804C13.4401 10.4461 13.5385 10.813 13.3728 11.1C13.2209 11.363 12.879 11.5001 12.5532 11.3196L11.7971 10.8824L12.0475 11.8167C12.1255 12.1077 11.9646 12.453 11.6648 12.5516C11.3651 12.6501 11.0013 12.4877 10.8884 12.1273L10.3267 10.0336L8.60273 9.03839V11.2L10.0277 12.6243C10.262 12.8586 10.262 13.2385 10.0277 13.4728C9.81466 13.6858 9.4506 13.7205 9.20353 13.5042L8.60273 12.896L8.60341 13.6C8.60341 13.9314 8.33478 14.2 8.00341 14.2C7.69966 14.2 7.40341 13.9678 7.40273 13.6V12.8968L6.82768 13.4728C6.5749 13.7243 6.19499 13.6858 5.97915 13.4728C5.7633 13.2598 5.73049 12.8968 5.97915 12.6243L7.40273 11.2V9.03919L5.67873 10.0344L5.11843 12.1273C5.03266 12.4474 4.70366 12.6373 4.38358 12.5516C4.0926 12.4736 3.86751 12.1556 3.94182 11.8477L4.20913 10.8832L3.45367 11.3196C3.16669 11.4853 2.79974 11.387 2.63405 11.1C2.48218 10.8369 2.52961 10.4763 2.82031 10.3074L3.42273 9.95119L2.78358 9.7803C2.4926 9.70233 2.25141 9.38318 2.35932 9.04545C2.46723 8.70772 2.76654 8.54534 3.09417 8.62119L4.89233 9.10239L6.80353 7.99919L5.18673 7.06559L3.09417 7.62732C2.77409 7.71308 2.43631 7.50959 2.35932 7.20305C2.28233 6.89651 2.43631 6.55757 2.7569 6.46821L3.71713 6.21759L2.85367 5.7196C2.56669 5.55392 2.46837 5.18696 2.63405 4.89999C2.78593 4.63693 3.1406 4.50886 3.45367 4.68037L4.12993 5.07039L3.95932 4.43177C3.88135 4.14079 4.00801 3.78945 4.36204 3.69692C4.71607 3.60439 5.0223 3.78945 5.11843 4.12119L5.59953 5.91919L7.40273 6.95999V5.04799L5.97915 3.62425C5.74483 3.38994 5.74483 3.01004 5.97915 2.77572C6.19216 2.56271 6.55739 2.53071 6.80353 2.74614L7.40273 3.35039L7.40341 2.39999C7.40341 2.06862 7.67204 1.79999 8.00341 1.79999Z" fill="#1A1C1F"/>
</g>
<defs>
<clipPath id="clip0_185_845">
<rect width="16" height="16" fill="white"/>
</clipPath>
</defs>
</svg>

<svg xmlns="http://www.w3.org/2000/svg" width="16" height="16" fill="none"><g clip-path="url(#a)"><path fill="#1A1C1F" fill-rule="evenodd" d="M8.003 1.8c.304 0 .602.244.595.6l.005.951.576-.575a.604.604 0 0 1 .822-.03c.239.218.294.576.027.878L8.603 5.048v1.913l1.803-1.041.482-1.799a.6.6 0 0 1 .735-.424.59.59 0 0 1 .425.735l-.172.64.677-.392a.6.6 0 0 1 .6 1.04l-.863.498.933.25c.315.07.505.414.425.735-.081.32-.367.514-.735.424l-2.094-.56-1.615.932 1.91 1.103 1.799-.48a.6.6 0 0 1 .31 1.158l-.64.171.57.33a.6.6 0 0 1-.6 1.039l-.756-.438.25.935c.079.29-.082.636-.382.735a.62.62 0 0 1-.777-.425l-.561-2.093-1.724-.996V11.2l1.425 1.424a.6.6 0 0 1 0 .849.61.61 0 0 1-.824.031l-.601-.608v.704a.6.6 0 0 1-.6.6.595.595 0 0 1-.6-.6v-.703l-.575.576a.603.603 0 0 1-.849 0c-.216-.213-.249-.576 0-.849L7.403 11.2V9.04l-1.724.994-.56 2.093a.6.6 0 0 1-.735.425c-.291-.078-.516-.396-.442-.704l.267-.965-.755.437a.6.6 0 0 1-.82-.22c-.152-.263-.104-.624.186-.793l.603-.356-.64-.17c-.29-.079-.532-.398-.424-.736a.6.6 0 0 1 .735-.424l1.798.481L6.804 8l-1.617-.933-2.093.561a.607.607 0 0 1-.735-.424c-.077-.306.077-.645.398-.735l.96-.25-.863-.498a.6.6 0 1 1 .6-1.04l.676.39-.17-.638c-.079-.291.048-.643.402-.735a.6.6 0 0 1 .756.424L5.6 5.92 7.403 6.96V5.048L5.979 3.624a.6.6 0 0 1 0-.848.61.61 0 0 1 .825-.03l.599.604V2.4a.6.6 0 0 1 .6-.6" clip-rule="evenodd"/></g><defs><clipPath id="a"><path fill="#fff" d="M0 0h16v16H0z"/></clipPath></defs></svg>
